!!!OTL: 216. Bulgar
!!!Genre:	Bulgar
!!!Mode:	Major
!!!Listening/dance:	dance
!!!:	*g:dor
!!!One_Mode:	no
**kern
*thru
*I"P1
*clefG2
*k[f#]
*g:dor
!LO:TX:a:i:t=G-raised-fourth
8ddL
8eeJ
4ff
=10
4ee
4dd
=11
8cc#XL
8ddJ
4ee
=12
4dd
4cc#X
=13
8cc#XL
8b-
8a
8gJ
!!!Begin-Modulation1
*>B1
=14
8cc#XL
8b-
8a
8gJ
=15
2dd
=16
2gg
*>B
*k[b-]
!!!Begin-Modulation
*g:dor
!LO:TX:a:i:t=G-raised-fourth
8ddL
8eeJ
4ff
=10
4ee
4dd
=11
8cc#XL
8ddJ
4ee
=12
4dd
4cc#X
=13
8cc#XL
8b-
8a
8gJ
!!!Begin-Modulation1
*>B2
!!!Begin-Modulation2
=17:|!
8cc#L
8b-
8a
8b-J
=18
2g
=19
2gg
!!!End-Modulation
==
*-
